X:1
T:St. Hugh (Hopkins), CM
T:Edward John Hopkins, 1862
T:St. Hugh (Hopkins), CM
T:Public Domain
C:Edward John Hopkins, 1862
Z:Public Domain
%%score ( 1 2 ) ( 3 4 )
L:1/8
M:4/4
K:Eb
V:1 treble 
V:2 treble 
V:3 bass 
V:4 bass 
V:1
 [B,E]2 | [CE]2 [B,F]2 [B,G]2 E2 | B2 z D [EG]2 [EG]2 | [EA]2 [Dc]2 [EB]2 E2 x | [DF]6 [DB]2 | %5
 [Ee]2 [Gd]2 [Gc]2 [EB]2 | [EA]2 [EG]2 [EF]2 [Dc]2 | [EB]2 E2 E2 z F x | E6 |] %9
V:2
 x2 | x6 E2 | E3 F2 x3 | x6 E2 x | x8 | x8 | x8 | x2 E2 F3 D2 | E6 |] %9
V:3
 [E,G,]2 | [C,A,]2 [D,A,]2 [E,G,]2 [C,G,]2 | [B,,G,]2 [B,,A,]2 [E,G,]2 [_D,B,]2 | %3
 [C,A,]2 [F,A,]2 G,2 z =A, x | [B,,B,]6 [B,,A,]2 | [C,G,]2 [D,=B,]2 [E,C]2 [_D,G,]2 | %6
 [C,A,]2 [B,,B,]2 [=A,,C]2 [_A,,F,]2 | [G,,B,]2 [C,G,]2 [A,,F,]2 [B,,A,]2 x | [E,G,]6 |] %9
V:4
 x2 | x8 | x8 | x4 B,3 C,2 | x8 | x8 | x8 | x9 | x6 |] %9

